proprietary/assets/icons/internationaal/bol-met-rasterpatroon.svg

<svg enable-background="new 0 0 64 64" height="64" viewBox="0 0 64 64" width="64" xmlns="http://www.w3.org/2000/svg"><path d="m0 0h64v64h-64z" fill="none"/><path d="m40.3 18.9c-2.3-4.6-6.5-10.3-11.5-10.5l2.7 13.4c3.4-.8 6.3-1.8 8.8-2.9zm-11.8 3.5-2.7-13.4c-4.5 2.2-6.2 9-6.6 13.9 2.9.2 6.1 0 9.3-.5zm2.5 12.4-1.9-9.4c-3.4.6-6.6.8-10 .6 0 3.5.4 6.6 1.2 9.7 3.2 0 6.8-.3 10.7-.9zm-9.9 3.9c.9 3 2.1 5.8 3.5 8.2 2.6-.1 5.5-.4 8.7-.9l-1.7-8.3c-3.5.6-7.1 1-10.5 1zm23.2-7.8c-.5-3.1-1.3-6.1-2.6-9.3-2.8 1.3-6 2.4-9.5 3.1l1.9 9.4c3.8-.8 7.2-1.9 10.2-3.2zm2.8-1.3c4-2.1 6.6-4.3 7.3-6.3-1.1-2.8-2.6-5.3-4.6-7.4-1.3 1.5-3.2 3-5.5 4.4 1.3 3.1 2.2 6 2.8 9.3zm-28-17.8c-3.6 2.3-6.4 5.4-8.4 9.1 1.6 1 3.6 1.5 5.5 1.8.3-3.8 1.2-7.7 2.9-10.9zm23.9 5.7c2-1.2 3.6-2.5 4.6-3.7-3.3-2.8-7.3-4.7-11.6-5.5 3 2.4 5.3 5.8 7 9.2zm-4.7 37.6c3.2-1.5 4.8-5.3 5.7-8.7-2.2.8-4.6 1.5-7.1 2.1zm6.7-2.9c4.2-2.7 7.5-6.8 9.3-11.4-1.9 1.5-4.2 2.9-7 4.2-.4 2.4-1 4.8-2.3 7.2zm10.5-25c-1.7 1.9-4.5 3.9-7.9 5.6.4 2.9.5 5.8.2 8.5 4.5-2.3 7.3-5 8.1-7.4.2-2.1.1-4.4-.4-6.7zm-20.9 10 1.7 8.3c3.1-.7 5.9-1.6 8.3-2.6.3-2.7.4-5.7.1-8.7-3 1.1-6.4 2.1-10.1 3zm-16.6 1.4c-3.8-.2-7.2-1-9.5-2.3.5 2.5 1.3 4.8 2.4 7 1.4 1.9 5.1 3.2 10.3 3.5-1.3-2.4-2.4-5.2-3.2-8.2zm8.6 11.3c2.1 2.8 5.2 5.6 8.6 5.8l-1.3-6.7c-2.5.4-5 .7-7.3.9zm-9.4-14.4c-.7-3.3-1.1-6.4-1.1-9.8-2.3-.3-4.6-.9-6.6-2.1-1 2.6-1.5 5.5-1.5 8.4.8 1.8 4.2 3.1 9.2 3.5zm5.8 14.5c-3 0-5.7-.4-7.9-1 3.5 3.5 8 5.8 12.9 6.7-2.1-1.8-3.6-3.6-5-5.7z"/></svg>

<?xml version="1.0" encoding="utf-8"?>
<!-- Generator: Adobe Illustrator 21.0.2, SVG Export Plug-In . SVG Version: 6.00 Build 0)  -->
<!DOCTYPE svg PUBLIC "-//W3C//DTD SVG 1.1//EN" "http://www.w3.org/Graphics/SVG/1.1/DTD/svg11.dtd">
<svg version="1.1" xmlns="http://www.w3.org/2000/svg" xmlns:xlink="http://www.w3.org/1999/xlink" x="0px" y="0px" width="64px"
	 height="64px" viewBox="0 0 64 64" style="enable-background:new 0 0 64 64;" xml:space="preserve">
<style type="text/css">
	.st0{fill:none;}
</style>
<g id="_x36_4px_Box">
	<rect class="st0" width="64" height="64"/>
</g>
<g id="Icon">
	<g>
		<g>
			<path d="M40.3,18.9C38,14.3,33.8,8.6,28.8,8.4l2.7,13.4C34.9,21,37.8,20,40.3,18.9z M28.5,22.4L25.8,9c-4.5,2.2-6.2,9-6.6,13.9
				C22.1,23.1,25.3,22.9,28.5,22.4z M31,34.8l-1.9-9.4c-3.4,0.6-6.6,0.8-10,0.6c0,3.5,0.4,6.6,1.2,9.7C23.5,35.7,27.1,35.4,31,34.8z
				 M21.1,38.7c0.9,3,2.1,5.8,3.5,8.2c2.6-0.1,5.5-0.4,8.7-0.9l-1.7-8.3C28.1,38.3,24.5,38.7,21.1,38.7z M44.3,30.9
				c-0.5-3.1-1.3-6.1-2.6-9.3c-2.8,1.3-6,2.4-9.5,3.1l1.9,9.4C37.9,33.3,41.3,32.2,44.3,30.9z M47.1,29.6c4-2.1,6.6-4.3,7.3-6.3
				c-1.1-2.8-2.6-5.3-4.6-7.4c-1.3,1.5-3.2,3-5.5,4.4C45.6,23.4,46.5,26.3,47.1,29.6z M19.1,11.8c-3.6,2.3-6.4,5.4-8.4,9.1
				c1.6,1,3.6,1.5,5.5,1.8C16.5,18.9,17.4,15,19.1,11.8z M43,17.5c2-1.2,3.6-2.5,4.6-3.7C44.3,11,40.3,9.1,36,8.3
				C39,10.7,41.3,14.1,43,17.5z M38.3,55.1c3.2-1.5,4.8-5.3,5.7-8.7c-2.2,0.8-4.6,1.5-7.1,2.1L38.3,55.1z M45,52.2
				c4.2-2.7,7.5-6.8,9.3-11.4c-1.9,1.5-4.2,2.9-7,4.2C46.9,47.4,46.3,49.8,45,52.2z M55.5,27.2C55.5,27.2,55.5,27.2,55.5,27.2
				c-1.7,1.9-4.5,3.9-7.9,5.6c0.4,2.9,0.5,5.8,0.2,8.5c4.5-2.3,7.3-5,8.1-7.4C56.1,31.8,56,29.5,55.5,27.2z M34.6,37.2l1.7,8.3
				c3.1-0.7,5.9-1.6,8.3-2.6c0.3-2.7,0.4-5.7,0.1-8.7C41.7,35.3,38.3,36.3,34.6,37.2z M18,38.6c-3.8-0.2-7.2-1-9.5-2.3
				c0.5,2.5,1.3,4.8,2.4,7c1.4,1.9,5.1,3.2,10.3,3.5C19.9,44.4,18.8,41.6,18,38.6z M26.6,49.9c2.1,2.8,5.2,5.6,8.6,5.8L33.9,49
				C31.4,49.4,28.9,49.7,26.6,49.9z M17.2,35.5c-0.7-3.3-1.1-6.4-1.1-9.8c-2.3-0.3-4.6-0.9-6.6-2.1C8.5,26.2,8,29.1,8,32
				C8.8,33.8,12.2,35.1,17.2,35.5z M23,50c-3,0-5.7-0.4-7.9-1c3.5,3.5,8,5.8,12.9,6.7C25.9,53.9,24.4,52.1,23,50z"/>
		</g>
	</g>
</g>
</svg>
